icon/fa/bath.svg

<svg xmlns="http://www.w3.org/2000/svg" viewBox="0 0 512 512"><!--! Font Awesome Free 6.1.2 by @fontawesome - https://fontawesome.com License - https://fontawesome.com/license/free (Icons: CC BY 4.0, Fonts: SIL OFL 1.1, Code: MIT License) Copyright 2022 Fonticons, Inc.--><path d="M32 384c0 28.32 12.49 53.52 32 71.09V496c0 8.8 7.16 16 16 16h32c8.8 0 16-7.2 16-16v-15.1h256V496c0 8.836 7.164 16 16 16h32c8.836 0 16-7.164 16-16v-40.9c19.51-17.57 32-42.77 32-71.09V352H32v32zm464-128H96V77.25c-.03-10.8 15-17.02 22.6-9.37l13.8 13.78c-8.8 26.94-3 52.84 11.8 71.54-6.3 6.3-6.4 16.6-.2 22.8l11.31 11.31c6.248 6.248 16.38 6.248 22.63 0l105.4-105.4c6.248-6.248 6.248-16.38 0-22.63l-11.31-11.31c-6.248-6.248-16.38-6.248-22.63 0-18.7-14.71-44.7-20.42-71.7-11.56l-13.8-13.77C149.5 8.25 129.6 0 109.3 0 66.66 0 32 34.66 32 77.25v178.8L16 256c-8.836 0-16 7.2-16 16v32c0 8.8 7.164 16 16 16h480c8.836 0 16-7.164 16-16v-32c0-8.8-7.2-16-16-16z"/></svg>

<svg xmlns="http://www.w3.org/2000/svg" viewBox="0 0 512 512" height="1em" width="1em">
<!--! Font Awesome Free 6.1.2 by @fontawesome - https://fontawesome.com License - https://fontawesome.com/license/free (Icons: CC BY 4.0, Fonts: SIL OFL 1.1, Code: MIT License) Copyright 2022 Fonticons, Inc.-->
  <path d="M32 384c0 28.32 12.49 53.52 32 71.09V496C64 504.8 71.16 512 80 512h32C120.8 512 128 504.8 128 496v-15.1h256V496c0 8.836 7.164 16 16 16h32c8.836 0 16-7.164 16-16v-40.9c19.51-17.57 32-42.77 32-71.09V352H32V384zM496 256H96V77.25C95.97 66.45 111 60.23 118.6 67.88L132.4 81.66C123.6 108.6 129.4 134.5 144.2 153.2C137.9 159.5 137.8 169.8 144 176l11.31 11.31c6.248 6.248 16.38 6.248 22.63 0l105.4-105.4c6.248-6.248 6.248-16.38 0-22.63l-11.31-11.31c-6.248-6.248-16.38-6.248-22.63 0C230.7 33.26 204.7 27.55 177.7 36.41L163.9 22.64C149.5 8.25 129.6 0 109.3 0C66.66 0 32 34.66 32 77.25v178.8L16 256C7.164 256 0 263.2 0 272v32C0 312.8 7.164 320 16 320h480c8.836 0 16-7.164 16-16v-32C512 263.2 504.8 256 496 256z"/>
</svg>
